X:1706
T:Boil the Breakfast Early
R:reel
D:Paddy Glackin & Robbie Hannan: The Whirlwind
Z:id:hn-reel-799
M:C|
K:G
~G3B ADDF|GB~B2 cABA|GcBG ADEF|GE~E2 cABA|
~G3B ADDF|GB~B2 cABc|dBcA BGAF|GE~E2 cABc||
d2fd edBA|(3Bcd ef gefe|d2fd edBA|GE~E2 cABc|
d2fd edBA|(3Bcd ef g2fg|afge fdcA|GE~E2 c2Bc||
dA~A2 dAFA|dA~A2 defe|dA~A2 dAFA|GE~E2 c2Bc|
dA~A2 dAFA|dA~A2 defe|dBcA (3Bcd AF|GA (3Bcd gdBA||
